public/99.svg

<svg fill="none" height="64" viewBox="0 0 64 64" width="64" xmlns="http://www.w3.org/2000/svg"><path d="m49.2784 17.8029c6.3633 3.6742 8.5854 11.7671 5.0285 18.166l-.1096.1933-7.2035 12.4778h-12.1925l3.687-6.3862c-.9048-.2885-1.7926-.6779-2.6487-1.1722-1.4809-.8551-2.7376-1.9496-3.7493-3.2063l-6.2146 10.7647h-12.1925l3.6871-6.3862c-.9048-.2885-1.7926-.6779-2.6487-1.1722-6.42763-3.7114-8.62991-11.9311-4.91891-18.3594 3.71101-6.4282 11.93001-8.6307 18.35771-4.9193 1.5261.8811 2.814 2.0164 3.841 3.3216 4.0631-5.1724 11.415-6.7064 17.277-3.3216zm-30.3313 10.1993c-.7952 1.3775-.3233 3.1389 1.054 3.9342 1.3774.7953 3.1386.3233 3.9338-1.0542.7952-1.3774.3233-3.1388-1.0541-3.9341-1.3773-.7953-3.1385-.3233-3.9337 1.0541zm21.118 0c-.7952 1.3775-.3233 3.1389 1.0541 3.9342 1.3773.7953 3.1385.3233 3.9337-1.0542.7953-1.3774.3234-3.1388-1.054-3.9341s-3.1386-.3233-3.9338 1.0541z" fill="#222"/></svg>

<svg width="64" height="64" viewBox="0 0 64 64" fill="none" xmlns="http://www.w3.org/2000/svg">
<path d="M49.2784 17.8029C55.6417 21.4771 57.8638 29.57 54.3069 35.9689L54.1973 36.1622L46.9938 48.64H34.8013L38.4883 42.2538C37.5835 41.9653 36.6957 41.5759 35.8396 41.0816C34.3587 40.2265 33.102 39.132 32.0903 37.8753L25.8757 48.64H13.6832L17.3703 42.2538C16.4655 41.9653 15.5777 41.5759 14.7216 41.0816C8.29397 37.3702 6.09169 29.1505 9.80269 22.7222C13.5137 16.294 21.7327 14.0915 28.1604 17.8029C29.6865 18.684 30.9744 19.8193 32.0014 21.1245C36.0645 15.9521 43.4164 14.4181 49.2784 17.8029ZM18.9471 28.0022C18.1519 29.3797 18.6238 31.1411 20.0011 31.9364C21.3785 32.7317 23.1397 32.2597 23.9349 30.8822C24.7301 29.5048 24.2582 27.7434 22.8808 26.9481C21.5035 26.1528 19.7423 26.6248 18.9471 28.0022ZM40.0651 28.0022C39.2699 29.3797 39.7418 31.1411 41.1192 31.9364C42.4965 32.7317 44.2577 32.2597 45.0529 30.8822C45.8482 29.5048 45.3763 27.7434 43.9989 26.9481C42.6215 26.1528 40.8603 26.6248 40.0651 28.0022Z" fill="#222222"/>
</svg>
